X: 15945
T: Granny In The Corner
R: reel
M: 4/4
K: Dmixolydian
GE|DEGA BG~G2|AGEF G2AB|~c3B cBAG|~E3D EAGE|
DEGA BGGB|AGEF G2AB|~c3B cBAG|~D3E D2:|
Bc|~d3B ~c3A|~B3A GABc|d2cA BGAG|~E3D E2 Bc|
~d3B ~c3A|~B3A GABc|d2cA BGAG|~D3E D2:|

